svgs/solid/circle-f.svg

<svg xmlns="http://www.w3.org/2000/svg" viewBox="0 0 512 512"><!--! Font Awesome Pro 6.2.0 by @fontawesome - https://fontawesome.com License - https://fontawesome.com/license (Commercial License) Copyright 2022 Fonticons, Inc. --><path d="M256 512c141.4 0 256-114.6 256-256S397.4 0 256 0S0 114.6 0 256S114.6 512 256 512zM184 128H328c13.3 0 24 10.7 24 24s-10.7 24-24 24H208v64h88c13.3 0 24 10.7 24 24s-10.7 24-24 24H208v72c0 13.3-10.7 24-24 24s-24-10.7-24-24V264 152c0-13.3 10.7-24 24-24z"/></svg>

<svg xmlns="http://www.w3.org/2000/svg" viewBox="0 0 512 512"><!--! Font Awesome Pro 6.1.2 by @fontawesome - https://fontawesome.com License - https://fontawesome.com/license (Commercial License) Copyright 2022 Fonticons, Inc. --><path d="M256 0C114.6 0 0 114.6 0 256s114.6 256 256 256s256-114.6 256-256S397.4 0 256 0zM328 176H208v64h88C309.3 240 320 250.8 320 264S309.3 288 296 288H208v72C208 373.3 197.3 384 184 384S160 373.3 160 360v-208C160 138.8 170.8 128 184 128h144C341.3 128 352 138.8 352 152S341.3 176 328 176z"/></svg>
